lib/brands/logos/ethereum.svg

<svg xmlns="http://www.w3.org/2000/svg" fill="none" aria-hidden="true" viewBox="0 0 154 105"><g id="Ethereum" clip-path="url(#clip0_2757_248026)"><path id="Vector" fill="#3C3C3B" d="M13.8249 97.4585C13.8249 97.7959 13.5423 98.0706 13.2049 98.0706H1.26094C1.55915 101.021 3.78 103.713 6.90332 103.713C9.03785 103.713 10.6231 102.897 11.8159 101.194C11.9885 100.958 12.2475 100.809 12.5771 100.951C12.7576 101.029 12.8832 101.194 12.9145 101.382C12.9459 101.578 12.891 101.688 12.8361 101.798C11.6354 103.893 9.24189 104.921 6.89548 104.921C2.87754 104.921 0.0131836 101.327 0.0131836 97.482C0.0131836 93.6367 2.87754 90.0426 6.89548 90.0426C10.9134 90.0347 13.817 93.621 13.8249 97.4585V97.4585ZM12.5457 96.8777C12.2867 93.9271 10.0266 91.2354 6.90332 91.2354C3.78 91.2354 1.55915 93.9271 1.26094 96.8777H12.5457ZM28.3193 90.3329C28.6646 90.3329 28.9157 90.6311 28.9157 90.9293C28.9157 91.2746 28.6567 91.5257 28.3193 91.5257H25.1175V104.09C25.1175 104.388 24.8585 104.686 24.5211 104.686C24.1758 104.686 23.9246 104.388 23.9246 104.09V91.5257H20.8484C20.5031 91.5257 20.252 91.2668 20.252 90.9293C20.252 90.6311 20.511 90.3329 20.8484 90.3329H23.9246V85.7343C23.9246 85.4439 24.1208 85.1771 24.4033 85.13C24.8036 85.0672 25.1175 85.3419 25.1175 85.7186V90.3329H28.3193ZM47.8518 96.4069V104.019C47.8518 104.364 47.5536 104.615 47.2554 104.615C46.9101 104.615 46.659 104.356 46.659 104.019V96.4069C46.659 93.8408 45.2072 91.2746 42.3428 91.2746C38.6702 91.2746 37.085 94.4842 37.2968 97.7724C37.2968 97.8587 37.3361 98.2432 37.3361 98.2824V103.995C37.3361 104.286 37.1399 104.553 36.8574 104.6C36.4572 104.662 36.1433 104.388 36.1433 104.011V79.009C36.1433 78.7108 36.4022 78.4126 36.7397 78.4126C37.085 78.4126 37.3361 78.7108 37.3361 79.009V93.158C38.3641 91.3217 40.2004 90.0818 42.335 90.0818C45.8428 90.0818 47.8518 93.158 47.8518 96.4069V96.4069ZM69.2677 97.4585C69.2677 97.7959 68.9852 98.0706 68.6478 98.0706H56.696C56.9942 101.021 59.215 103.713 62.3383 103.713C64.4729 103.713 66.0581 102.897 67.2509 101.194C67.4236 100.958 67.6825 100.809 68.0121 100.951C68.1926 101.029 68.3182 101.194 68.3496 101.382C68.381 101.578 68.326 101.688 68.2711 101.798C67.0704 103.893 64.6769 104.921 62.3305 104.921C58.3126 104.921 55.4482 101.327 55.4482 97.482C55.4482 93.6367 58.3126 90.0426 62.3305 90.0426C66.3563 90.0347 69.2599 93.621 69.2677 97.4585V97.4585ZM67.9807 96.8777C67.7218 93.9271 65.4617 91.2354 62.3383 91.2354C59.215 91.2354 56.9942 93.9271 56.696 96.8777H67.9807ZM83.9269 90.8901C83.9269 91.2746 83.715 91.4865 83.3698 91.5336C79.8619 92.0437 78.2845 94.908 78.2845 98.2432V103.956C78.2845 104.247 78.0884 104.513 77.8058 104.56C77.4056 104.623 77.0917 104.349 77.0917 103.972V90.9529C77.0917 90.6625 77.2879 90.3957 77.5704 90.3486C77.9706 90.2858 78.2845 90.5605 78.2845 90.9372V93.5896C79.2655 91.926 81.2352 90.3408 83.2834 90.3408C83.5816 90.3329 83.9269 90.5526 83.9269 90.8901V90.8901ZM103.546 97.4585C103.546 97.7959 103.263 98.0706 102.926 98.0706H90.9819C91.2801 101.021 93.5009 103.713 96.6242 103.713C98.7588 103.713 100.344 102.897 101.537 101.194C101.709 100.958 101.968 100.809 102.298 100.951C102.479 101.029 102.604 101.194 102.635 101.382C102.667 101.578 102.612 101.688 102.557 101.798C101.356 103.893 98.9628 104.921 96.6164 104.921C92.5985 104.921 89.7341 101.327 89.7341 97.482C89.7341 93.6367 92.5985 90.0426 96.6164 90.0426C100.634 90.0347 103.538 93.621 103.546 97.4585V97.4585ZM102.267 96.8777C102.008 93.9271 99.7476 91.2354 96.6242 91.2354C93.5009 91.2354 91.2801 93.9271 90.9819 96.8777H102.267V96.8777ZM122.827 91.0392V104.09C122.827 104.435 122.529 104.686 122.231 104.686C121.885 104.686 121.634 104.427 121.634 104.09V101.61C120.653 103.58 118.896 104.984 116.675 104.984C113.128 104.984 111.158 101.908 111.158 98.6591V91.0078C111.158 90.7096 111.417 90.4114 111.754 90.4114C112.1 90.4114 112.351 90.7096 112.351 91.0078V98.6591C112.351 101.225 113.803 103.791 116.667 103.791C120.685 103.791 121.627 100.032 121.627 95.8811V91.0078C121.627 90.6625 121.972 90.3094 122.396 90.4349C122.655 90.5213 122.827 90.7724 122.827 91.0392V91.0392ZM153.04 96.3598V104.011C153.04 104.356 152.742 104.608 152.444 104.608C152.099 104.608 151.847 104.349 151.847 104.011V96.3598C151.847 93.7937 150.396 91.2746 147.531 91.2746C143.937 91.2746 142.572 95.1199 142.572 98.1098V104.011C142.572 104.356 142.273 104.608 141.975 104.608C141.63 104.608 141.379 104.349 141.379 104.011V96.3598C141.379 93.7937 139.927 91.2746 137.063 91.2746C133.429 91.2746 131.93 94.139 132.064 97.945C132.064 98.0313 132.103 98.204 132.064 98.2432V103.995C132.064 104.286 131.868 104.553 131.577 104.6C131.177 104.662 130.863 104.388 130.863 104.011V90.9529C130.863 90.6625 131.059 90.3957 131.342 90.3486C131.742 90.2858 132.056 90.5605 132.056 90.9372V93.1188C133.084 91.2825 134.92 90.0818 137.055 90.0818C139.488 90.0818 141.371 91.6199 142.14 93.8878C143.121 91.667 145.044 90.0818 147.523 90.0818C151.031 90.0818 153.04 93.1109 153.04 96.3598"/><g id="Group" opacity="0.6"><path id="Vector_2" fill="#010101" d="M76.5344 24.0448L56.5703 33.1245L76.5344 44.9193L96.4907 33.1245L76.5344 24.0448Z" opacity="0.6"/></g><g id="Group_2" opacity="0.45"><path id="Vector_3" fill="#010101" d="M56.5703 33.1245L76.5345 44.9193V0L56.5703 33.1245Z" opacity="0.45"/></g><g id="Group_3" opacity="0.8"><path id="Vector_4" fill="#010101" d="M76.5344 0V44.9193L96.4907 33.1245L76.5344 0Z" opacity="0.8"/></g><g id="Group_4" opacity="0.45"><path id="Vector_5" fill="#010101" d="M56.5703 36.9069L76.5345 65.0325V48.7018L56.5703 36.9069Z" opacity="0.45"/></g><g id="Group_5" opacity="0.8"><path id="Vector_6" fill="#010101" d="M76.5344 48.7018V65.0325L96.5064 36.9069L76.5344 48.7018Z" opacity="0.8"/></g></g><defs><clipPath id="clip0_2757_248026"><rect width="153.061" height="105" fill="white"/></clipPath></defs></svg>

<svg xmlns="http://www.w3.org/2000/svg" fill="none" aria-hidden="true" viewBox="0 0 154 105"><g clip-path="url(#a)"><path fill="#3C3C3B" d="M13.825 97.459a.62.62 0 0 1-.62.612H1.26c.298 2.95 2.519 5.642 5.642 5.642 2.135 0 3.72-.816 4.913-2.519.172-.236.431-.385.761-.243.18.078.306.243.338.431a.61.61 0 0 1-.079.416c-1.2 2.095-3.594 3.123-5.94 3.123-4.018 0-6.883-3.594-6.883-7.439s2.865-7.44 6.882-7.44c4.018-.007 6.922 3.579 6.93 7.416Zm-1.28-.581c-.258-2.95-2.518-5.643-5.642-5.643-3.123 0-5.344 2.692-5.642 5.643h11.285Zm15.774-6.545c.346 0 .597.298.597.596a.582.582 0 0 1-.597.597h-3.201v12.564a.611.611 0 0 1-.597.596.606.606 0 0 1-.596-.596V91.526h-3.077a.582.582 0 0 1-.596-.597c0-.298.259-.596.596-.596h3.077v-4.599c0-.29.196-.557.478-.604.4-.063.715.212.715.589v4.614h3.201Zm19.533 6.074v7.612a.606.606 0 0 1-.597.596.582.582 0 0 1-.596-.596v-7.612c0-2.566-1.452-5.132-4.316-5.132-3.673 0-5.258 3.21-5.046 6.497 0 .087.04.471.04.51v5.713c0 .291-.197.558-.48.605-.4.062-.714-.212-.714-.589V79.009c0-.298.26-.596.597-.596.345 0 .596.298.596.596v14.149c1.028-1.836 2.864-3.076 4.999-3.076 3.508 0 5.517 3.076 5.517 6.325Zm21.416 1.052a.62.62 0 0 1-.62.612H56.696c.298 2.95 2.519 5.642 5.642 5.642 2.135 0 3.72-.816 4.913-2.519.173-.236.431-.385.761-.243.18.078.306.243.338.431.031.196-.024.306-.079.416-1.2 2.095-3.594 3.123-5.94 3.123-4.018 0-6.883-3.594-6.883-7.439s2.865-7.44 6.883-7.44c4.025-.007 6.929 3.579 6.937 7.416Zm-1.287-.581c-.26-2.95-2.52-5.643-5.643-5.643-3.123 0-5.344 2.692-5.642 5.643h11.285Zm15.946-5.988c0 .385-.212.597-.557.644-3.508.51-5.086 3.374-5.086 6.71v5.712c0 .291-.196.557-.478.604-.4.063-.714-.211-.714-.588v-13.02c0-.29.196-.556.478-.603.4-.063.715.212.715.588v2.653c.98-1.664 2.95-3.25 4.998-3.25.299-.007.644.213.644.55Zm19.619 6.569a.62.62 0 0 1-.62.612H90.982c.298 2.95 2.519 5.642 5.642 5.642 2.135 0 3.72-.816 4.913-2.519.172-.236.431-.385.761-.243a.571.571 0 0 1 .337.431c.032.196-.023.306-.078.416-1.201 2.095-3.594 3.123-5.94 3.123-4.019 0-6.883-3.594-6.883-7.439s2.865-7.44 6.882-7.44c4.018-.007 6.922 3.579 6.93 7.416Zm-1.279-.581c-.259-2.95-2.52-5.643-5.643-5.643-3.123 0-5.344 2.692-5.642 5.643h11.285Zm20.56-5.839v13.051a.606.606 0 0 1-.596.596.582.582 0 0 1-.597-.596v-2.48c-.981 1.97-2.738 3.374-4.959 3.374-3.547 0-5.517-3.076-5.517-6.325v-7.651c0-.298.259-.597.596-.597.346 0 .597.299.597.597v7.651c0 2.566 1.452 5.132 4.316 5.132 4.018 0 4.96-3.759 4.96-7.91v-4.873c0-.346.345-.699.769-.573a.641.641 0 0 1 .431.604Zm30.213 5.32v7.652a.607.607 0 0 1-.596.597.583.583 0 0 1-.597-.597V96.36c0-2.566-1.451-5.085-4.316-5.085-3.594 0-4.959 3.845-4.959 6.835v5.901a.608.608 0 0 1-.597.597.582.582 0 0 1-.596-.597V96.36c0-2.566-1.452-5.085-4.316-5.085-3.634 0-5.133 2.864-4.999 6.67 0 .086.039.259 0 .298v5.752c0 .291-.196.558-.487.605-.4.062-.714-.212-.714-.589V90.953c0-.29.196-.557.479-.604.4-.063.714.212.714.588v2.182c1.028-1.837 2.864-3.037 4.999-3.037 2.433 0 4.316 1.538 5.085 3.806.981-2.221 2.904-3.806 5.383-3.806 3.508 0 5.517 3.029 5.517 6.278"/><path fill="#010101" d="m76.534 24.045-19.964 9.08 19.964 11.794 19.957-11.794-19.957-9.08Z" opacity=".6"/><path fill="#010101" d="M56.57 33.124 76.534 44.92V0L56.57 33.124Z" opacity=".45"/><path fill="#010101" d="M76.534 0v44.92l19.957-11.796L76.534 0Z" opacity=".8"/><path fill="#010101" d="m56.57 36.907 19.964 28.126V48.701L56.57 36.907Z" opacity=".45"/><path fill="#010101" d="M76.534 48.702v16.33l19.972-28.125-19.972 11.795Z" opacity=".8"/></g><defs><clipPath id="a"><path fill="#fff" d="M0 0h153.061v105H0z"/></clipPath></defs></svg>
